X: 1
T:Lady Diana Spencers's Welcome to Deeside  "CYMRU 21:55 05/09/97"
M:6/8
L:1/8
Q:80
C:P/M Donald Morrison - S. Uist
S:March
K:HP
|: A|
{Gdc}d3{gfg}f2d|
{g}G3/2B/2d{g}A2d|
{gBd}B2g{afg}f2d|  !
{gef}e3{A}e2A| |
{Gdc}d3{gfg}f2d|
{g}G3/2B/2d{g}A2d|  !
{gBd}B2d{g}c/2e3/2{g}c|
{Gdc}d3{gdG}d2:| |:
g|  !
{afg}f2d{g}A2{d}B|
{g}G3/2B/2d{g}A2d|
{gBd}B2g{afg}f2d|  !
{gef}e3{A}e2|1 g|1 |
{afg}f2d{g}A2{d}B|
{g}G3/2B/2d{g}A2d|  !
{gBd}B2d{g}c/2e3/2{g}c|
{Gdc}d3{gdG}d2:| |:
f|  !
{g}A2{d}B{g}G3/2B/2d|
{g}A2d{gfg}f2d|
{gBd}B2g{afg}f2d|  !
{gef}e3{A}e2f| |
{g}A2{d}B{g}G3/2B/2d|
{g}A2d{gfg}f2A|  !
{gBd}B2d{g}c/2e3/2{g}c|
{Gdc}d3{gdG}d2:| |:
g|  !
{a}f/2a3/2d{gBG}B2g|
{afg}f2d{g}A2{d}B|
{g}G3/2B/2d{g}A2d|  !
{g}c/2e3/2{g}c{G}A2|1 g|1 |
{a}f/2a3/2d{gBG}B2g|
{afg}f2d{g}A2{d}B|  !
{g}A3/2B/2d{g}c/2e3/2{g}c|
{Gdc}d3{gdG}d2:|
